images/logo-footer.svg

<svg width="187" height="24" viewBox="0 0 187 24" fill="none" xmlns="http://www.w3.org/2000/svg">
<g opacity="0.4">
<path d="M96.2714 3.18729C96.4294 3.49024 96.5126 3.82437 96.5144 4.1635V20.759C96.5039 21.3461 96.2574 21.9065 95.8268 22.3217C95.3962 22.737 94.8151 22.9747 94.2062 22.9847H87.3423V24H95.259C95.8679 23.9899 96.449 23.7522 96.8796 23.337C97.3103 22.9217 97.5568 22.3614 97.5672 21.7742V5.17875C97.5655 4.76326 97.4432 4.35653 97.2142 4.00458C96.9852 3.65263 96.6586 3.36952 96.2714 3.18729Z" fill="#DBB590"/>
<path d="M106.927 2.953V22.9652H104.239V23.9853H107.979V2.953H106.927Z" fill="#DBB590"/>
<path d="M123.57 2.953V22.9652H120.583L120.882 23.9853H124.628V2.953H123.57Z" fill="#DBB590"/>
<path d="M117.086 13.8035V22.975H114.398V23.9951H118.139V17.313L117.086 13.8035Z" fill="#DBB590"/>
<path d="M133.42 15.2678H136.513V14.2282H132.367C132.016 14.2265 131.669 14.1463 131.355 13.9939C131.539 14.3733 131.83 14.6945 132.196 14.9201C132.562 15.1457 132.986 15.2663 133.42 15.2678Z" fill="#DBB590"/>
<path d="M134.853 16.6003L133.795 16.8346V19.3386H134.853V16.6003Z" fill="#DBB590"/>
<path d="M140.041 3.18729C140.199 3.49024 140.282 3.82437 140.284 4.1635V8.43439L137.566 9.03964V10.2892L141.337 9.44476V5.17387C141.334 4.75921 141.212 4.35351 140.983 4.00251C140.754 3.6515 140.428 3.36915 140.041 3.18729Z" fill="#DBB590"/>
<path d="M46.6399 3.18729C46.798 3.49024 46.8811 3.82437 46.8829 4.16349V20.759C46.8725 21.3461 46.6259 21.9065 46.1953 22.3217C45.7647 22.737 45.1836 22.9747 44.5747 22.9847H38.9763C38.6246 22.983 38.2781 22.9028 37.9639 22.7504C38.1525 23.1231 38.4453 23.4375 38.8093 23.6583C39.1733 23.8791 39.5941 23.9974 40.0241 24H45.6326C46.2415 23.9899 46.8226 23.7522 47.2532 23.337C47.6839 22.9217 47.9304 22.3614 47.9408 21.7742V5.17875C47.9381 4.76286 47.8148 4.356 47.5849 4.00411C47.355 3.65221 47.0277 3.36929 46.6399 3.18729Z" fill="#DBB590"/>
<path d="M57.1078 10.6211H58.1607V6.56008H59.821V5.53994H57.1078V10.6211Z" fill="#DBB590"/>
<path d="M63.3086 15.014C63.7005 14.8388 64.0322 14.5591 64.2645 14.208C64.4968 13.8568 64.6201 13.4488 64.6196 13.0323V5.17386C64.6199 4.75607 64.498 4.34667 64.2679 3.99267C64.0378 3.63868 63.7088 3.35445 63.3187 3.17265C63.4744 3.47642 63.5575 3.81002 63.5617 4.14885V12.0317C63.5646 12.4481 63.4436 12.8566 63.213 13.2087C62.9824 13.5609 62.652 13.8418 62.2608 14.0183L63.8198 22.975H60.9447L61.1219 23.9902H64.8626L63.3086 15.014Z" fill="#DBB590"/>
<path d="M58.5403 14.2086H57.1078V22.975H54.42V23.9951H58.1607V15.2678H58.7175L58.5403 14.2086Z" fill="#DBB590"/>
<path d="M73.3159 19.3191H74.3738V6.56008H76.029V5.53994H73.3159V19.3191Z" fill="#DBB590"/>
<path d="M23.6895 10.6211H24.7423V6.56008H26.3976V5.53994H23.6895V10.6211Z" fill="#DBB590"/>
<path d="M31.2266 11.363V5.17386C31.2239 4.75921 31.1012 4.35351 30.8722 4.0025C30.6433 3.6515 30.3172 3.36915 29.9307 3.18729C30.0888 3.49024 30.172 3.82437 30.1737 4.16349V10.3526C30.179 10.6787 30.1085 11.0018 29.9675 11.2983C29.8265 11.5947 29.6185 11.857 29.3587 12.0659C29.6165 12.2967 29.8237 12.575 29.968 12.8844C30.1123 13.1937 30.1909 13.5278 30.199 13.867V20.7492C30.1897 21.3452 29.9366 21.9135 29.4948 22.3303C29.053 22.7472 28.4583 22.9789 27.8402 22.975H21.0016V23.9902H28.9184C29.5273 23.9802 30.1084 23.7424 30.539 23.3272C30.9696 22.9119 31.2162 22.3516 31.2266 21.7645V14.8822C31.2168 14.542 31.136 14.2071 30.989 13.8977C30.842 13.5882 30.6319 13.3105 30.3711 13.0811C30.6395 12.876 30.856 12.6148 31.0042 12.3171C31.1524 12.0195 31.2284 11.6932 31.2266 11.363Z" fill="#DBB590"/>
<path d="M79.8052 4.16349C79.804 3.8243 79.7208 3.49005 79.5622 3.18729C79.9468 3.37178 80.2707 3.65569 80.4977 4.00733C80.7247 4.35898 80.846 4.76453 80.8479 5.17875V21.7742C80.8375 22.3614 80.591 22.9217 80.1603 23.337C79.7297 23.7522 79.1486 23.9899 78.5397 24H72.9261C72.4961 23.9974 72.0754 23.8791 71.7113 23.6583C71.3473 23.4375 71.0545 23.1231 70.8659 22.7504C71.1801 22.9028 71.5266 22.983 71.8783 22.9847H77.497C78.1059 22.9747 78.6869 22.737 79.1176 22.3217C79.5482 21.9065 79.7947 21.3461 79.8052 20.759V4.16349Z" fill="#DBB590"/>
<path d="M91.083 19.3386H90.025V5.53994H92.7382V6.56008H91.083V19.3386Z" fill="#DBB590"/>
<path d="M140.284 12.8517C140.282 12.5126 140.199 12.1785 140.041 11.8755C140.425 12.0592 140.749 12.3422 140.976 12.693C141.203 13.0438 141.325 13.4486 141.327 13.8621V21.7742C141.317 22.3614 141.07 22.9217 140.639 23.337C140.209 23.7522 139.628 23.9899 139.019 24H133.41C132.98 23.9974 132.559 23.8791 132.195 23.6583C131.831 23.4375 131.539 23.1231 131.35 22.7504C131.664 22.9028 132.011 22.983 132.362 22.9847H137.976C138.585 22.9747 139.166 22.737 139.597 22.3217C140.027 21.9065 140.274 21.3461 140.284 20.759V12.8517Z" fill="#DBB590"/>
<path d="M133.795 10.6211V5.53018L136.508 5.53994V6.56008H134.853V10.6211H133.795Z" fill="#DBB590"/>
<path d="M150.499 14.2282H150.843L151.547 16.4149V23.9951H147.806V22.975H150.499V14.2282Z" fill="#DBB590"/>
<path d="M157.12 2.953H158.517L155.024 13.4423L158.517 23.9951H154.746L154.716 23.8731L154.422 22.975H157.459L153.966 12.4271L157.12 2.953Z" fill="#DBB590"/>
<path d="M167.304 22.9652V2.953H168.357V23.9853H164.622V22.9652H167.304Z" fill="#DBB590"/>
<path d="M183.052 15.2239L185.947 12.4319L187 13.4521L184.11 16.244L183.052 15.2239Z" fill="#DBB590"/>
<path d="M4.87455 15.2239L7.76487 12.4368L8.8228 13.4521L5.94766 16.244L4.87455 15.2239Z" fill="#DBB590"/>
<path d="M24.7423 19.3386H23.6895V14.2282H26.3976V15.2678H24.7423V19.3386Z" fill="#DBB590"/>
<path d="M41.4465 19.3386H40.3936L40.3987 5.53994H43.1017V6.56008H41.4465V19.3386Z" fill="#DBB590"/>
</g>
<path d="M2.89032 7.72179L0 10.5137L2.89032 13.3154L5.78064 10.5137L2.89032 7.72179Z" fill="#DBB590"/>
<path d="M181.068 7.72667L178.177 10.5137L181.078 13.3154L183.963 10.5137L181.068 7.72667Z" fill="#DBB590"/>
<path fill-rule="evenodd" clip-rule="evenodd" d="M27.9511 9.3749C28.0956 9.081 28.1701 8.75967 28.1692 8.43441V2.22575C28.1639 1.63702 27.919 1.07385 27.4873 0.657545C27.0556 0.241235 26.4715 0.00510322 25.861 5.36551e-06H17.9443V21.0421H25.8661C26.475 21.0321 27.0561 20.7943 27.4867 20.3791C27.9173 19.9638 28.1639 19.4035 28.1743 18.8163V11.9341C28.1661 11.595 28.0876 11.2609 27.9433 10.9515C27.7989 10.6422 27.5918 10.3638 27.334 10.133C27.5957 9.92781 27.8065 9.66879 27.9511 9.3749ZM21.685 3.60708H24.3981V8.68822H21.685V3.60708ZM21.685 12.2953H24.3981V17.4057H21.685V12.2953Z" fill="#DBB590"/>
<path fill-rule="evenodd" clip-rule="evenodd" d="M44.1965 0.657545C43.7648 0.241235 43.1807 0.00510322 42.5702 5.36551e-06H36.9515C36.6482 -0.000637489 36.3478 0.0564922 36.0674 0.168118C35.7871 0.279745 35.5324 0.443669 35.3179 0.650477C35.1034 0.857283 34.9334 1.1029 34.8177 1.37323C34.7019 1.64356 34.6427 1.93328 34.6433 2.22575V18.8212C34.6486 19.41 34.8935 19.9731 35.3252 20.3894C35.757 20.8057 36.341 21.0419 36.9515 21.047H42.5702C43.1791 21.0369 43.7602 20.7992 44.1908 20.384C44.6214 19.9687 44.868 19.4084 44.8784 18.8212V2.22575C44.8731 1.63702 44.6282 1.07385 44.1965 0.657545ZM38.3942 3.60708H41.1022L41.1073 17.4057H38.3942V3.60708Z" fill="#DBB590"/>
<path fill-rule="evenodd" clip-rule="evenodd" d="M56.546 12.2953L58.0645 21.0421H61.7951L60.2361 12.0854C60.6317 11.9131 60.9676 11.6346 61.2037 11.2832C61.4398 10.9318 61.566 10.5224 61.5673 10.1037V2.22575C61.5693 1.93538 61.512 1.64748 61.3986 1.37848C61.2852 1.10947 61.118 0.864641 60.9065 0.657961C60.6949 0.45128 60.4433 0.286797 60.1658 0.173904C59.8884 0.0610128 59.5906 0.00192081 59.2895 5.36551e-06H51.3727V21.0421H55.1134V12.2953H56.546ZM55.1033 3.60708H57.8165V8.68822H55.1033V3.60708Z" fill="#DBB590"/>
<path fill-rule="evenodd" clip-rule="evenodd" d="M77.1188 0.657545C76.687 0.241235 76.103 0.00510322 75.4925 5.36551e-06H69.8536C69.2463 0.00643954 68.6662 0.243928 68.2396 0.660779C67.813 1.07763 67.5744 1.6401 67.5757 2.22575V18.8212C67.581 19.41 67.8259 19.9731 68.2576 20.3894C68.6894 20.8057 69.2734 21.0419 69.8839 21.047H75.4925C76.1014 21.0369 76.6825 20.7992 77.1131 20.384C77.5437 19.9687 77.7903 19.4084 77.8007 18.8212V2.22575C77.7954 1.63702 77.5505 1.07385 77.1188 0.657545ZM71.3114 3.60708H74.0245V17.4057H71.3114V3.60708Z" fill="#DBB590"/>
<path fill-rule="evenodd" clip-rule="evenodd" d="M93.828 0.657545C93.3962 0.241235 92.8122 0.00510322 92.2016 5.36551e-06H84.2849V21.047H92.2016C92.8106 21.0369 93.3916 20.7992 93.8223 20.384C94.2529 19.9687 94.4994 19.4084 94.5099 18.8212V2.22575C94.5046 1.63702 94.2597 1.07385 93.828 0.657545ZM88.0256 3.60708H90.7388V17.4057H88.0256V3.60708Z" fill="#DBB590"/>
<path d="M104.922 5.36551e-06H101.181V21.0421H104.922V5.36551e-06Z" fill="#DBB590"/>
<path d="M121.571 21.0421V5.36551e-06H117.815V8.62477L115.071 5.36551e-06H111.361V21.0421H115.086V11.8511L117.83 21.0421H121.571Z" fill="#DBB590"/>
<path d="M137.598 9.34577C137.166 8.92945 136.582 8.69332 135.971 8.68822H131.806V3.60708H134.519V7.32642L138.29 6.482V2.22575C138.285 1.63702 138.04 1.07385 137.608 0.657545C137.176 0.241235 136.592 0.00510322 135.982 5.36551e-06H130.363C130.061 0.000644472 129.761 0.0587225 129.482 0.170924C129.203 0.283126 128.949 0.44725 128.736 0.653929C128.522 0.86061 128.353 1.1058 128.238 1.37549C128.123 1.64518 128.064 1.9341 128.065 2.22575V10.0793C128.066 10.371 128.126 10.6596 128.242 10.9288C128.358 11.198 128.529 11.4425 128.743 11.6483C128.957 11.8541 129.212 12.0171 129.491 12.1281C129.771 12.2391 130.071 12.2959 130.373 12.2953H134.519V17.4106H131.806V13.6522L128.065 14.4918V18.8212C128.07 19.4083 128.314 19.97 128.743 20.386C129.173 20.8021 129.754 21.0393 130.363 21.047H135.971C136.58 21.0369 137.161 20.7992 137.592 20.384C138.023 19.9687 138.269 19.4084 138.28 18.8212V10.914C138.274 10.3252 138.03 9.76207 137.598 9.34577Z" fill="#DBB590"/>
<path d="M155.46 21.047L151.967 10.4942L155.49 5.36551e-06H151.689L148.818 8.68822H148.51V5.36551e-06H144.769V21.0421H148.51V12.3002H148.854L151.658 20.9249L151.689 21.047H155.46Z" fill="#DBB590"/>
<path d="M165.325 5.36551e-06H161.584V21.0421H165.325V5.36551e-06Z" fill="#DBB590"/>
</svg>

<svg xmlns="http://www.w3.org/2000/svg" width="187" height="24" fill="none"><g fill="#DBB590" opacity=".4"><path d="M96.27 3.19c.16.3.24.63.24.97v16.6a2.23 2.23 0 0 1-.68 1.56 2.4 2.4 0 0 1-1.62.66h-6.87V24h7.92a2.4 2.4 0 0 0 1.62-.66c.43-.42.68-.98.69-1.57V5.17a2.28 2.28 0 0 0-1.3-2ZM106.93 2.95v20.02h-2.7v1.02h3.75V2.95h-1.05ZM123.57 2.95v20.02h-2.99l.3 1.02h3.75V2.95h-1.06ZM117.09 13.8v9.18h-2.7V24h3.75V17.3l-1.05-3.5ZM133.42 15.27h3.1v-1.04h-4.15c-.35 0-.7-.08-1.02-.24a2.35 2.35 0 0 0 2.06 1.27ZM134.85 16.6l-1.06.23v2.5h1.06V16.6ZM140.04 3.19c.16.3.24.63.24.97v4.27l-2.71.61v1.25l3.77-.85V5.17c0-.41-.13-.82-.36-1.17a2.28 2.28 0 0 0-.94-.81ZM46.64 3.19c.16.3.24.63.24.97v16.6a2.23 2.23 0 0 1-.68 1.56 2.4 2.4 0 0 1-1.63.66h-5.6c-.35 0-.7-.08-1-.23.18.37.48.69.84.9.36.23.78.35 1.21.35h5.61a2.4 2.4 0 0 0 1.62-.66c.43-.42.68-.98.7-1.57V5.17a2.29 2.29 0 0 0-1.3-2ZM57.1 10.62h1.06V6.56h1.66V5.54h-2.71v5.08ZM63.3 15.01a2.13 2.13 0 0 0 1.31-1.98V5.17c.01-.41-.11-.82-.34-1.18a2.28 2.28 0 0 0-.95-.82c.15.3.24.64.24.98v7.88c0 .42-.12.83-.35 1.18-.23.35-.56.63-.95.8l1.56 8.97h-2.88l.18 1.01h3.74l-1.55-8.98ZM58.54 14.2h-1.43v8.78h-2.69V24h3.74v-8.73h.56l-.18-1.06ZM73.32 19.32h1.05V6.56h1.66V5.54h-2.71v13.78ZM23.69 10.62h1.05V6.56h1.66V5.54h-2.71v5.08ZM31.23 11.36V5.17c0-.41-.13-.82-.36-1.17a2.28 2.28 0 0 0-.94-.81c.16.3.24.63.24.97v6.2a2.12 2.12 0 0 1-.81 1.7 2.54 2.54 0 0 1 .84 1.8v6.89c-.01.6-.26 1.16-.7 1.58-.45.42-1.04.65-1.66.65H21v1.01h7.92a2.4 2.4 0 0 0 1.62-.66c.43-.42.68-.98.69-1.57v-6.88a2.46 2.46 0 0 0-.86-1.8 2.2 2.2 0 0 0 .86-1.72Z"/><path d="M79.8 4.16c0-.34-.08-.67-.24-.97.39.18.71.47.94.82.22.35.35.75.35 1.17v16.6a2.23 2.23 0 0 1-.69 1.56 2.4 2.4 0 0 1-1.62.66h-5.61c-.43 0-.85-.12-1.22-.34a2.26 2.26 0 0 1-.84-.91c.31.15.66.23 1 .23h5.63a2.4 2.4 0 0 0 1.62-.66c.43-.41.67-.97.69-1.56V4.16ZM91.08 19.34h-1.05V5.54h2.7v1.02h-1.65v12.78ZM140.28 12.85c0-.34-.08-.67-.24-.97a2.17 2.17 0 0 1 1.29 1.99v7.9a2.22 2.22 0 0 1-.7 1.57c-.42.41-1 .65-1.61.66h-5.61c-.43 0-.85-.12-1.22-.34a2.26 2.26 0 0 1-.84-.91c.31.15.66.23 1.01.23h5.62a2.4 2.4 0 0 0 1.62-.66c.43-.41.67-.97.68-1.56v-7.9ZM133.8 10.62V5.53l2.7.01v1.02h-1.65v4.06h-1.06ZM150.5 14.23h.34l.7 2.18V24h-3.73v-1.02h2.69v-8.75ZM157.12 2.95h1.4l-3.5 10.5 3.5 10.55h-3.77l-.03-.13-.3-.9h3.04l-3.5-10.54 3.16-9.48ZM167.3 22.97V2.95h1.06V24h-3.74v-1.02h2.68ZM183.05 15.22l2.9-2.79 1.05 1.02-2.89 2.8-1.06-1.03ZM4.87 15.22l2.9-2.78 1.05 1.01-2.87 2.8-1.08-1.03ZM24.74 19.34H23.7v-5.11h2.7v1.04h-1.65v4.07ZM41.45 19.34h-1.06V5.54h2.71v1.02h-1.65v12.78Z"/></g><path fill="#DBB590" d="M2.89 7.72 0 10.52l2.89 2.8 2.9-2.8-2.9-2.8ZM181.07 7.73l-2.9 2.78 2.9 2.8 2.9-2.8-2.9-2.78Z"/><path fill="#DBB590" fill-rule="evenodd" d="M27.95 9.37c.15-.29.22-.61.22-.94v-6.2a2.2 2.2 0 0 0-.68-1.57A2.37 2.37 0 0 0 25.86 0h-7.92v21.04h7.93a2.4 2.4 0 0 0 1.62-.66c.43-.42.67-.98.68-1.56v-6.89a2.46 2.46 0 0 0-.84-1.8c.27-.2.48-.46.62-.76Zm-6.27-5.76h2.72v5.08h-2.71V3.6Zm0 8.69h2.72v5.1h-2.71v-5.1ZM44.2.66A2.37 2.37 0 0 0 42.57 0h-5.62a2.38 2.38 0 0 0-1.63.65 2.22 2.22 0 0 0-.68 1.58v16.6c0 .58.25 1.14.69 1.56.43.42 1.01.65 1.62.66h5.62a2.4 2.4 0 0 0 1.62-.67c.43-.41.68-.97.69-1.56V2.22A2.2 2.2 0 0 0 44.2.67ZM38.4 3.6h2.7v13.8h-2.7V3.6ZM56.55 12.3l1.51 8.74h3.74l-1.56-8.95c.4-.18.73-.46.96-.8.24-.36.37-.77.37-1.19V2.23A2.14 2.14 0 0 0 60.9.66 2.3 2.3 0 0 0 59.29 0h-7.92v21.04h3.74V12.3h1.44ZM55.1 3.6h2.72V8.7H55.1V3.6ZM77.12.66A2.37 2.37 0 0 0 75.49 0h-5.64c-.6 0-1.18.24-1.61.66-.43.42-.67.98-.66 1.57v16.6c0 .58.25 1.14.68 1.56.43.42 1.01.65 1.62.66h5.61a2.4 2.4 0 0 0 1.62-.67c.43-.41.68-.97.7-1.56V2.22a2.2 2.2 0 0 0-.7-1.56Zm-5.8 2.95h2.7v13.8h-2.7V3.6ZM93.83.66A2.37 2.37 0 0 0 92.2 0h-7.92v21.05h7.92a2.4 2.4 0 0 0 1.62-.67c.43-.41.68-.97.69-1.56V2.22a2.2 2.2 0 0 0-.68-1.56Zm-5.8 2.95h2.7v13.8h-2.7V3.6Z" clip-rule="evenodd"/><path fill="#DBB590" d="M104.92 0h-3.74v21.04h3.74V0ZM121.57 21.04V0h-3.75v8.62L115.06 0h-3.7v21.04h3.72v-9.19l2.74 9.2h3.74ZM137.6 9.35a2.37 2.37 0 0 0-1.63-.66h-4.16V3.6h2.7v3.72l3.78-.85V2.23a2.2 2.2 0 0 0-.68-1.57 2.37 2.37 0 0 0-1.63-.66h-5.62a2.38 2.38 0 0 0-1.62.65 2.2 2.2 0 0 0-.68 1.58v7.85a2.16 2.16 0 0 0 .68 1.57 2.31 2.31 0 0 0 1.63.65h4.15v5.11h-2.71v-3.76l-3.75.84v4.33c.01.59.25 1.15.68 1.57.43.41 1.01.65 1.62.66h5.61a2.4 2.4 0 0 0 1.62-.67c.43-.41.68-.97.69-1.56v-7.9a2.2 2.2 0 0 0-.68-1.57ZM155.46 21.05l-3.5-10.56L155.5 0h-3.8l-2.87 8.69h-.31V0h-3.74v21.04h3.74V12.3h.34l2.8 8.62.04.13h3.77ZM165.32 0h-3.74v21.04h3.74V0Z"/></svg>
